X: 219
T:Woodcock, The
M:6/8
C:Hammy Hamilton
R:jig
Z:Chris Corrigan, 19/4/2000
K:G
||: dBG cGE | DBD ~G3 | ~B3 dcB | dcB ABc | dBG cGE | DBD ~G3 | ~B3 ded
|
ABA G3:||
dBG ecA | ~f3 g2d | ege dcB | dcB ABc | dBG ecA | ~f3 g2d | ege dBG |
ABA G2B |
dBG ecA | ~f3 g2g | ege dcB | dcB ABc | dBG cGE | DBD ~G3 | ~B3 ded |
ABA G3 ||

